images/davrbank.svg

<svg width="136" height="68" viewBox="0 0 136 68" fill="none" xmlns="http://www.w3.org/2000/svg">
<mask id="mask0_5_764" style="mask-type:luminance" maskUnits="userSpaceOnUse" x="2" y="21" width="131" height="26">
<path d="M132.599 21H2.56445V46.9153H132.599V21Z" fill="white"/>
</mask>
<g mask="url(#mask0_5_764)">
<path d="M32.8553 41.3506C31.0404 43.151 29.2327 44.9592 27.4323 46.7752C27.2405 46.967 27.1337 46.952 26.9486 46.7668C25.9294 45.736 24.8952 44.7168 23.866 43.6926C20.6999 40.5432 17.5306 37.3972 14.3579 34.2545C14.0743 33.9743 14.081 33.8359 14.3579 33.5673C15.8592 32.1277 17.3471 30.6682 18.8384 29.2153C18.9151 29.1402 18.9952 29.0685 19.0902 28.9834C19.1787 29.0618 19.2571 29.1202 19.3138 29.1852C19.7158 29.5856 20.1061 29.9993 20.5231 30.3846C20.7366 30.5798 20.6899 30.6932 20.5048 30.8683C19.5356 31.8191 18.5831 32.785 17.609 33.7291C17.3905 33.9409 17.3805 34.0627 17.609 34.2779C20.6849 37.3383 23.7536 40.407 26.8151 43.484C27.0387 43.7076 27.1488 43.6926 27.3689 43.4757C28.6083 42.218 29.8711 40.9736 31.1071 39.7175C31.344 39.474 31.4774 39.484 31.6959 39.7175C32.0546 40.1145 32.4416 40.4898 32.8302 40.8568C33.0137 41.0386 33.0621 41.1487 32.8553 41.3506Z" fill="#2D9A44"/>
<path d="M28.4631 34.2597C26.9407 35.7242 25.4283 37.1983 23.926 38.6818C23.7091 38.8969 23.5923 38.9236 23.3721 38.6818C23.0135 38.2831 22.6299 37.9044 22.2362 37.5441C22.0193 37.3473 22.0227 37.2355 22.2362 37.032C23.1987 36.0979 24.1361 35.1371 25.1053 34.2113C25.3738 33.9544 25.3338 33.8276 25.0919 33.5874C22.0482 30.5682 19.0112 27.5401 15.9809 24.5031C15.8825 24.4046 15.7757 24.3112 15.6473 24.1928C15.5505 24.2862 15.4604 24.3596 15.377 24.4513C14.126 25.6991 12.8749 26.9435 11.6322 28.2045C11.412 28.428 11.2769 28.4814 11.045 28.2195C10.678 27.8092 10.276 27.4255 9.87735 27.0519C9.71054 26.8851 9.67551 26.7867 9.86234 26.6015C11.6894 24.7833 13.5077 22.9612 15.317 21.1352C15.4971 20.9534 15.6106 20.9684 15.764 21.1352C15.8574 21.2453 15.9725 21.3337 16.0759 21.4338L26.2012 31.519C26.9485 32.2646 27.7025 33.0203 28.4581 33.7442C28.66 33.9377 28.6883 34.0445 28.4631 34.2597Z" fill="#076DA3"/>
<path d="M99.6352 36.048C99.5418 34.9304 98.8262 34.1214 97.6152 33.7661C97.5118 33.736 97.39 33.7661 97.2716 33.6126C97.3717 33.5659 97.4551 33.5225 97.5385 33.4842C98.581 33.0004 99.0764 32.1497 99.013 30.9737C98.958 29.9178 98.3909 29.1888 97.32 28.8252C97.0527 28.7322 96.7765 28.6668 96.4959 28.63C94.8278 28.4315 93.1598 28.585 91.4917 28.5333C91.2015 28.5333 91.2548 28.7134 91.2548 28.8769C91.2548 32.2531 91.2548 35.6276 91.2548 39.0055C91.2548 39.3391 91.3599 39.3942 91.6568 39.3925C93.0764 39.3808 94.4926 39.3925 95.9154 39.3825C96.627 39.3898 97.3318 39.2442 97.9822 38.9555C99.1465 38.415 99.7453 37.3708 99.6352 36.048ZM92.7511 31.3857C92.7511 30.9287 92.7511 30.4716 92.7511 30.0129C92.7511 29.8678 92.7511 29.7226 92.9613 29.7276C94.0455 29.7593 95.1381 29.6225 96.2123 29.8461C97.0981 30.0312 97.4884 30.4933 97.5001 31.2823C97.5151 32.2231 97.1381 32.7619 96.2724 32.9954C95.3733 33.2373 94.4525 33.0972 93.5418 33.1205C92.7511 33.1405 92.7511 33.1205 92.7511 32.3315V31.3857ZM98.0239 36.9454C97.797 37.6127 97.2816 37.958 96.6277 38.0797C95.4117 38.3033 94.1773 38.1598 92.9579 38.1965C92.7344 38.1965 92.7578 38.053 92.7561 37.9113V36.2565C92.7561 35.706 92.7561 35.1539 92.7561 34.6034C92.7561 34.4633 92.7294 34.3065 92.9529 34.3149C94.179 34.3616 95.415 34.1831 96.6227 34.4316C97.8304 34.6802 98.4292 35.7444 98.0239 36.9454Z" fill="#076DA3"/>
<path d="M81.8453 34.7413L82.2073 34.6312C83.7086 34.1708 84.5093 33.0565 84.4509 31.4835C84.3958 30.0073 83.5318 29.0064 81.9955 28.6728C81.6124 28.5851 81.2207 28.5409 80.8278 28.541C79.2198 28.541 77.6101 28.5577 76.002 28.541C75.62 28.541 75.5016 28.6144 75.5016 29.0214C75.5199 32.1291 75.5116 35.235 75.5116 38.3443C75.5116 39.4203 75.5116 39.4052 76.5992 39.4102C76.9478 39.4102 77.0162 39.2918 77.0129 38.9749C76.9979 37.7455 77.0129 36.5145 76.9995 35.2851C76.9995 34.9715 77.0879 34.8847 77.3965 34.8914C78.2473 34.9114 79.0997 34.9164 79.9504 34.8914C80.0802 34.8792 80.2106 34.9076 80.3236 34.9727C80.4366 35.0379 80.5265 35.1365 80.5809 35.2551C81.3616 36.5328 82.1606 37.7972 82.9579 39.0633C83.053 39.2167 83.1131 39.4102 83.36 39.3969C83.8437 39.3969 84.3258 39.3969 84.9013 39.3969L81.8453 34.7413ZM77.2164 33.6887C77.0095 33.6887 77.0045 33.5486 77.0045 33.4001C77.0045 32.2825 77.0045 31.1632 77.0045 30.044C77.0045 29.7904 77.0963 29.7187 77.3382 29.7237C77.967 29.7354 78.5976 29.7237 79.3399 29.7237C79.932 29.737 80.6443 29.6686 81.3416 29.8154C82.4192 30.044 82.9446 30.6611 82.9446 31.662C82.9446 32.6979 82.3691 33.4619 81.3216 33.6103C79.9637 33.8055 78.5859 33.662 77.2164 33.6887Z" fill="#076DA3"/>
<path d="M121.042 29.5322C121.042 28.4362 121.042 28.4429 119.934 28.5313C119.724 28.548 119.669 28.6181 119.671 28.8149C119.706 31.5289 119.61 34.2412 119.724 36.9535C119.724 37.1003 119.819 37.3155 119.649 37.3772C119.479 37.4389 119.424 37.2104 119.347 37.0886C117.771 34.5965 116.161 32.1311 114.66 29.5972C114.159 28.7498 113.612 28.3945 112.658 28.518C112.294 28.563 112.196 28.6331 112.198 28.9984C112.213 32.1677 112.206 35.3371 112.206 38.5065C112.206 39.3839 112.206 39.3605 113.062 39.3922C113.464 39.4056 113.55 39.2805 113.549 38.8918C113.529 36.5248 113.539 34.1578 113.539 31.7908V30.3562C113.675 30.5497 113.766 30.6665 113.846 30.7932C115.414 33.2854 117.015 35.7575 118.525 38.2896C119.025 39.137 119.565 39.5574 120.563 39.4072C120.93 39.3522 121.063 39.3088 121.063 38.9068C121.033 35.7825 121.042 32.6565 121.042 29.5322ZM119.677 37.6007C119.657 37.5599 119.639 37.5182 119.624 37.4756C119.624 37.4756 119.671 37.4539 119.694 37.4406C119.713 37.478 119.729 37.517 119.741 37.5573C119.741 37.5573 119.704 37.584 119.677 37.6007Z" fill="#076DA3"/>
<path d="M53.6562 33.4371C53.5745 30.8115 51.898 28.9583 49.2858 28.6297C47.7145 28.4312 45.6994 28.5329 44.5601 28.5329C44.3033 28.5329 44.2899 28.658 44.2899 28.8549C44.2899 32.2466 44.2899 35.6384 44.2899 39.0302C44.2899 39.3388 44.4 39.3955 44.6752 39.3955C45.2357 39.3955 45.9997 39.3955 46.6619 39.3955C47.2941 39.3955 47.9247 39.4155 48.5552 39.3955C50.6453 39.3204 52.2584 38.4647 53.1575 36.4997C53.5928 35.5205 53.6879 34.4896 53.6562 33.4371ZM51.6362 36.2261C50.9789 37.4889 49.8847 38.0894 48.5002 38.1711C47.6995 38.2211 46.8921 38.1711 46.0881 38.2028C45.8129 38.2028 45.7895 38.0844 45.7912 37.8692C45.7912 36.5764 45.7912 35.282 45.7912 33.9875C45.7912 32.6931 45.8012 31.4337 45.7912 30.151C45.7912 29.8374 45.8462 29.7039 46.1965 29.7189C47.1557 29.7623 48.1215 29.6639 49.0723 29.844C50.8705 30.1776 51.888 31.2502 52.1149 33.0935C52.245 34.1777 52.1499 35.2386 51.6362 36.2261Z" fill="#076DA3"/>
<path d="M132.6 39.3492C132.498 39.3726 132.47 39.3809 132.433 39.3859C131.265 39.5978 130.445 39.1824 129.742 38.1849C128.827 36.8888 127.729 35.7195 126.725 34.4818C126.523 34.2332 126.416 34.2399 126.131 34.4C125.162 34.9488 125.035 35.5677 125.034 36.5935C125.034 37.1924 125.033 38.1716 125.06 38.9589C125.06 39.2691 125.01 39.3993 124.657 39.3959C123.551 39.3959 123.551 39.4059 123.551 38.2883C123.551 35.2124 123.551 32.1348 123.542 29.0571C123.542 28.6685 123.591 28.505 124.043 28.5234C125.044 28.5634 125.044 28.535 125.044 29.5242V33.6611C125.836 32.9271 126.712 32.1598 127.531 31.3524C128.395 30.5 129.215 29.6026 130.051 28.7219C130.093 28.6654 130.147 28.6193 130.21 28.5869C130.272 28.5546 130.341 28.5368 130.411 28.535C130.912 28.535 131.412 28.535 132.008 28.535C131.352 29.2139 130.768 29.8211 130.173 30.425C129.369 31.249 128.573 32.083 127.746 32.8821C127.459 33.1573 127.434 33.3124 127.707 33.626C129.25 35.3975 130.767 37.1941 132.291 38.9822C132.401 39.0907 132.483 39.2008 132.6 39.3492Z" fill="#076DA3"/>
<path d="M40.0396 34.1682C38.1492 36.0453 36.2648 37.9291 34.3865 39.8196C34.2047 40.0014 34.0913 40.0431 33.8961 39.838C33.4824 39.4043 33.0537 38.9839 32.61 38.5819C32.3965 38.3867 32.5016 38.2833 32.6501 38.1349C33.9161 36.8838 35.1789 35.6327 36.4416 34.37C36.5167 34.2949 36.6301 34.2516 36.6635 34.0948C36.5834 34.0097 36.4966 33.9046 36.3949 33.8062C35.1255 32.5351 33.8611 31.2573 32.5767 30.008C32.3248 29.7594 32.3098 29.621 32.5767 29.3824C33.0454 28.9621 33.4891 28.51 33.9261 28.048C34.0929 27.8811 34.1763 27.8811 34.3398 28.048C36.2303 29.9385 38.1291 31.8289 40.0363 33.7194C40.2098 33.8929 40.2198 33.9897 40.0396 34.1682Z" fill="#2D9A44"/>
<path d="M10.1876 38.5314C9.71223 38.9451 9.27352 39.3988 8.82981 39.8475C8.663 40.0143 8.54791 40.0143 8.37276 39.8475C6.48226 37.9403 4.58677 36.0421 2.68626 34.1527C2.51946 33.9859 2.51946 33.9008 2.68626 33.7407C4.60678 31.8446 6.51896 29.9447 8.4228 28.0408C8.47785 27.9858 8.54123 27.9407 8.60963 27.874C8.68803 27.9474 8.75809 28.0091 8.82314 28.0742C9.21347 28.4645 9.58879 28.8715 9.9908 29.2419C10.231 29.4604 10.2427 29.5838 10.0008 29.8223C8.78144 31.0117 7.59543 32.2327 6.37439 33.4204C6.09249 33.6973 6.04078 33.8391 6.35938 34.1443C7.65715 35.4021 8.90321 36.6932 10.1843 37.9576C10.4128 38.1811 10.4529 38.3012 10.1876 38.5314Z" fill="#076DA3"/>
<path d="M64.719 38.9263C63.4813 35.8804 62.253 32.8306 61.0342 29.7769C60.5204 28.5058 60.6572 28.5058 59.2794 28.5292C59.1549 28.5278 59.0324 28.5606 58.9253 28.6242C58.8182 28.6877 58.7306 28.7795 58.6722 28.8895C57.2994 32.2857 55.9432 35.6269 54.5504 39.0147C54.4453 39.2716 54.4086 39.4201 54.7756 39.3851C55.0586 39.3592 55.3433 39.3592 55.6263 39.3851C55.8999 39.4101 56.0133 39.2866 56.1017 39.0514C56.417 38.2174 56.7689 37.3834 57.0709 36.5493C57.0958 36.4369 57.1631 36.3384 57.2588 36.2744C57.3545 36.2104 57.4712 36.1858 57.5846 36.2057C58.2635 36.224 58.9424 36.2057 59.6197 36.2057C60.3303 36.2057 61.0409 36.2207 61.7498 36.2057C61.8639 36.1871 61.9808 36.2135 62.0758 36.2795C62.1707 36.3455 62.2363 36.4459 62.2586 36.5593C62.4754 37.1832 62.7273 37.7937 62.9659 38.4109C63.3479 39.3951 63.3495 39.3767 64.4154 39.4001C64.8541 39.4051 64.8641 39.285 64.719 38.9263ZM61.3245 35.0597C60.2202 35.0514 59.1159 35.0597 58.0116 35.0597C57.8182 35.0597 57.653 35.0597 57.7631 34.7845C58.4037 33.1281 59.0859 31.4867 59.6664 29.7335C60.2285 31.4783 60.9258 33.0947 61.5513 34.7378C61.6547 35.0113 61.5847 35.0614 61.3245 35.0597Z" fill="#076DA3"/>
<path d="M110.745 38.8897C109.463 35.7092 108.185 32.5298 106.908 29.3515C106.574 28.5359 106.574 28.5359 105.692 28.5359C105.358 28.5359 104.871 28.5142 104.714 28.9112C103.483 32.0605 102.169 35.1782 100.896 38.3108C100.761 38.6444 100.504 39.1449 100.563 39.29C100.631 39.4685 101.498 39.4018 101.625 39.3884C101.93 39.3534 102.061 39.2933 102.164 39.0131C102.473 38.179 102.831 37.345 103.138 36.511C103.161 36.4134 103.219 36.3278 103.302 36.2713C103.385 36.2148 103.486 36.1914 103.585 36.2057C105.003 36.2168 106.421 36.2168 107.84 36.2057C107.94 36.1912 108.04 36.2147 108.123 36.2717C108.205 36.3287 108.263 36.4148 108.284 36.5126C108.523 37.1615 108.785 37.8021 109.033 38.4476C109.402 39.3951 109.402 39.3951 110.409 39.3934C110.941 39.3851 110.945 39.3851 110.745 38.8897ZM107.36 35.0531C106.258 35.0397 105.155 35.0397 104.051 35.0531C103.707 35.0531 103.749 34.9313 103.84 34.6944C104.464 33.068 105.143 31.465 105.709 29.7219C106.124 30.9929 106.594 32.1573 107.055 33.3233C107.233 33.777 107.4 34.2357 107.584 34.6861C107.682 34.9346 107.694 35.0664 107.36 35.0614V35.0531Z" fill="#076DA3"/>
<path d="M32.8168 27.0216C32.3564 27.452 31.8943 27.884 31.469 28.3561C31.2371 28.6063 31.112 28.5379 30.9102 28.3344C29.7025 27.105 28.4764 25.899 27.2704 24.6696C27.0436 24.4378 26.9168 24.4194 26.6816 24.6696C25.7475 25.6305 24.7916 26.5713 23.8458 27.5187C23.7591 27.6055 23.669 27.6855 23.5706 27.7789C23.4822 27.7005 23.4038 27.6388 23.3454 27.5738C22.9868 27.2168 22.6515 26.8348 22.2662 26.5112C21.9442 26.2426 22.0593 26.0758 22.2912 25.844C23.3143 24.8342 24.3301 23.8195 25.3388 22.7997C25.8842 22.2509 26.433 21.7071 26.9618 21.145C27.152 20.9415 27.2621 20.9648 27.4472 21.145C29.2376 22.9476 31.0342 24.7436 32.8368 26.5329C33.0353 26.7364 33.0003 26.8482 32.8168 27.0216Z" fill="#2D9A44"/>
<path d="M20.5798 41.9427C18.9562 43.5497 17.3437 45.1688 15.7423 46.8002C15.5755 46.967 15.4821 46.9437 15.3303 46.7902C13.5132 44.9731 11.6939 43.1599 9.87235 41.3506C9.78895 41.2688 9.65884 41.2004 9.80563 41.052C10.3394 40.5165 10.8665 39.9744 11.3986 39.4373C11.4415 39.4008 11.4872 39.3679 11.5354 39.3389C11.6255 39.4223 11.7172 39.5057 11.8023 39.5891C13.0317 40.8118 14.2677 42.0261 15.4838 43.2589C15.7206 43.5007 15.8424 43.4857 16.0693 43.2589C17.0017 42.298 17.9625 41.3639 18.905 40.4064C19.1102 40.1979 19.2386 40.1446 19.4588 40.3931C19.8024 40.7834 20.1828 41.1404 20.5598 41.499C20.7182 41.6492 20.7666 41.7543 20.5798 41.9427Z" fill="#076DA3"/>
<path d="M74.1903 28.5362C74.0235 28.9649 73.8734 29.3519 73.7166 29.7373C72.4555 32.8266 71.1967 35.9192 69.9401 39.0151C69.9056 39.1413 69.8262 39.2504 69.7168 39.322C69.6074 39.3936 69.4756 39.4227 69.3462 39.4038C68.2303 39.3888 68.2286 39.4038 67.8133 38.3879C66.54 35.2686 65.2666 32.1504 63.9933 29.0333C63.935 28.8899 63.8883 28.7414 63.8165 28.5446C64.2919 28.5446 65.166 28.5446 65.166 28.5446C65.3795 28.5446 65.4262 28.6663 65.4846 28.8181C66.5772 31.6756 67.7866 34.4913 68.7874 37.3938C68.8425 37.5506 68.8541 37.7274 69.0443 37.8742C69.4863 36.5247 69.9884 35.2286 70.5005 33.9325C71.1594 32.2644 71.8183 30.5963 72.4555 28.9199C72.569 28.6213 72.7057 28.5379 73.031 28.5296C73.1945 28.5246 73.76 28.5362 74.1903 28.5362Z" fill="#076DA3"/>
<path d="M119.679 37.6006C119.659 37.56 119.641 37.5182 119.626 37.4755C119.648 37.4626 119.671 37.4509 119.694 37.4404C119.713 37.4777 119.729 37.5168 119.741 37.5572C119.741 37.5572 119.704 37.5839 119.679 37.6006Z" fill="#076DA3"/>
</g>
</svg>

<svg xmlns="http://www.w3.org/2000/svg" width="136" height="68" fill="none"><mask id="a" width="131" height="26" x="2" y="21" maskUnits="userSpaceOnUse" style="mask-type:luminance"><path fill="#fff" d="M132.599 21H2.564v25.915H132.6V21Z"/></mask><g mask="url(#a)"><path fill="#2D9A44" d="M32.855 41.35a921.444 921.444 0 0 0-5.423 5.425c-.191.192-.298.177-.483-.008-1.02-1.031-2.054-2.05-3.083-3.074-3.166-3.15-6.335-6.296-9.508-9.438-.284-.28-.277-.42 0-.688 1.501-1.44 2.99-2.899 4.48-4.352.077-.075.157-.146.252-.232.089.079.167.137.224.202.402.4.792.814 1.21 1.2.213.195.166.308-.02.483-.968.951-1.92 1.917-2.895 2.861-.219.212-.229.334 0 .549 3.076 3.06 6.145 6.129 9.206 9.206.224.224.334.209.554-.008 1.24-1.258 2.502-2.502 3.738-3.758.237-.244.37-.234.589 0 .359.396.746.772 1.134 1.139.184.182.232.292.025.494Z"/><path fill="#076DA3" d="M28.463 34.26a484.166 484.166 0 0 0-4.537 4.422c-.217.215-.334.242-.554 0a16.587 16.587 0 0 0-1.136-1.138c-.217-.197-.213-.308 0-.512.963-.934 1.9-1.895 2.87-2.82.268-.258.228-.384-.014-.625-3.044-3.019-6.08-6.047-9.111-9.084-.098-.098-.205-.192-.334-.31-.097.093-.187.167-.27.258-1.251 1.248-2.502 2.492-3.745 3.753-.22.224-.355.277-.587.015-.367-.41-.769-.794-1.168-1.167-.166-.167-.201-.265-.015-.45 1.827-1.819 3.646-3.64 5.455-5.467.18-.182.294-.167.447 0 .093.11.209.199.312.299L26.2 31.519c.747.746 1.502 1.501 2.257 2.225.202.194.23.3.005.516ZM99.635 36.048c-.093-1.118-.809-1.927-2.02-2.282-.103-.03-.225 0-.343-.153.1-.047.183-.09.266-.129 1.043-.484 1.538-1.334 1.475-2.51-.055-1.056-.622-1.785-1.693-2.149a4.15 4.15 0 0 0-.824-.195c-1.668-.198-3.336-.045-5.004-.097-.29 0-.237.18-.237.344v10.128c0 .334.105.39.402.387 1.42-.011 2.836 0 4.258-.01a4.969 4.969 0 0 0 2.067-.426c1.165-.541 1.763-1.585 1.653-2.908Zm-6.884-4.662v-1.373c0-.145 0-.29.21-.285 1.085.031 2.177-.106 3.251.118.886.185 1.276.647 1.288 1.436.015.941-.362 1.48-1.228 1.713-.899.242-1.82.102-2.73.126-.79.02-.79 0-.79-.79v-.945Zm5.273 5.56c-.227.667-.742 1.012-1.396 1.134-1.216.223-2.45.08-3.67.117-.224 0-.2-.144-.202-.286v-3.308c0-.14-.027-.297.197-.288 1.226.047 2.462-.132 3.67.117 1.207.248 1.806 1.312 1.4 2.513ZM81.845 34.741l.362-.11c1.502-.46 2.302-1.575 2.244-3.148-.055-1.476-.92-2.477-2.455-2.81a5.227 5.227 0 0 0-1.168-.132c-1.608 0-3.218.017-4.826 0-.382 0-.5.073-.5.48.018 3.108.01 6.214.01 9.323 0 1.076 0 1.061 1.087 1.066.349 0 .417-.118.414-.435-.015-1.23 0-2.46-.014-3.69 0-.313.089-.4.398-.394.85.02 1.703.025 2.553 0a.63.63 0 0 1 .63.364c.782 1.278 1.58 2.542 2.378 3.808.095.154.155.347.402.334h1.541l-3.056-4.656Zm-4.629-1.052c-.206 0-.212-.14-.212-.289v-3.356c0-.254.092-.325.334-.32.629.011 1.26 0 2.002 0 .592.013 1.304-.055 2.002.091 1.077.229 1.603.846 1.603 1.847 0 1.036-.576 1.8-1.623 1.948-1.358.196-2.736.052-4.106.079ZM121.042 29.532c0-1.096 0-1.09-1.108-1-.21.016-.265.086-.263.283.035 2.714-.061 5.426.053 8.138 0 .147.095.362-.075.424-.17.062-.225-.167-.302-.288-1.576-2.492-3.186-4.958-4.687-7.492-.501-.847-1.048-1.203-2.002-1.079-.364.045-.462.115-.46.48.015 3.17.008 6.34.008 9.509 0 .877 0 .854.856.885.402.014.488-.111.487-.5-.02-2.367-.01-4.734-.01-7.101v-1.435c.136.194.227.31.307.437 1.568 2.492 3.169 4.965 4.679 7.497.5.847 1.04 1.267 2.038 1.117.367-.055.5-.098.5-.5-.03-3.124-.021-6.25-.021-9.375Zm-1.365 8.069a1.16 1.16 0 0 1-.053-.125s.047-.022.07-.035a.698.698 0 0 1 .047.116s-.037.027-.064.044ZM53.656 33.437c-.081-2.625-1.758-4.479-4.37-4.807-1.572-.199-3.587-.097-4.726-.097-.257 0-.27.125-.27.322V39.03c0 .309.11.365.385.365h1.987c.632 0 1.263.02 1.893 0 2.09-.075 3.703-.93 4.602-2.895.436-.98.53-2.01.5-3.063Zm-2.02 2.79c-.657 1.262-1.751 1.862-3.136 1.944-.8.05-1.608 0-2.412.032-.275 0-.299-.119-.297-.334v-3.882c0-1.294.01-2.553 0-3.836 0-.314.055-.447.406-.432.959.043 1.924-.055 2.875.125 1.798.334 2.816 1.406 3.043 3.25.13 1.084.035 2.145-.479 3.132ZM132.6 39.35c-.102.023-.13.03-.167.036-1.168.212-1.988-.204-2.691-1.201-.915-1.296-2.013-2.466-3.017-3.703-.202-.249-.309-.242-.594-.082-.969.549-1.096 1.168-1.097 2.194 0 .598-.001 1.578.026 2.365 0 .31-.05.44-.403.437-1.106 0-1.106.01-1.106-1.108 0-3.076 0-6.153-.009-9.23 0-.39.049-.553.501-.535 1.001.04 1.001.012 1.001 1.001v4.137c.792-.734 1.668-1.501 2.487-2.309.864-.852 1.684-1.75 2.52-2.63a.46.46 0 0 1 .36-.187h1.597c-.656.679-1.24 1.286-1.835 1.89-.804.824-1.6 1.658-2.427 2.457-.287.275-.312.43-.039.744 1.543 1.772 3.06 3.568 4.584 5.356.11.109.192.219.309.367Z"/><path fill="#2D9A44" d="M40.04 34.168c-1.89 1.877-3.775 3.761-5.654 5.652-.181.181-.295.223-.49.018a24.694 24.694 0 0 0-1.286-1.256c-.213-.195-.108-.299.04-.447a901.5 901.5 0 0 0 3.792-3.765c.075-.075.188-.118.221-.275-.08-.085-.166-.19-.268-.289-1.27-1.27-2.534-2.549-3.818-3.798-.252-.249-.267-.387 0-.626.468-.42.912-.872 1.35-1.334.166-.167.25-.167.413 0 1.89 1.89 3.79 3.78 5.696 5.671.174.174.184.27.004.45Z"/><path fill="#076DA3" d="M10.188 38.531c-.476.414-.914.868-1.358 1.316-.167.167-.282.167-.457 0-1.89-1.907-3.786-3.805-5.687-5.694-.167-.167-.167-.252 0-.412 1.92-1.896 3.833-3.796 5.737-5.7.055-.055.118-.1.187-.167.078.073.148.135.213.2.39.39.766.797 1.168 1.168.24.218.252.342.01.58-1.22 1.19-2.406 2.41-3.627 3.598-.282.277-.333.42-.015.724 1.298 1.258 2.544 2.55 3.825 3.814.229.223.269.343.004.573ZM64.719 38.926a1586.158 1586.158 0 0 1-3.685-9.15c-.514-1.27-.377-1.27-1.755-1.247a.678.678 0 0 0-.607.36 1836.534 1836.534 0 0 1-4.122 10.126c-.105.257-.141.405.226.37.283-.026.567-.026.85 0 .274.025.387-.098.476-.334.315-.834.667-1.668.969-2.502a.447.447 0 0 1 .514-.343c.678.018 1.357 0 2.035 0 .71 0 1.42.015 2.13 0a.446.446 0 0 1 .509.353c.216.624.468 1.235.707 1.852.382.984.383.966 1.45.99.438.004.448-.116.303-.475Zm-3.394-3.866c-1.105-.009-2.21 0-3.313 0-.194 0-.359 0-.249-.276.64-1.656 1.323-3.297 1.903-5.05.563 1.744 1.26 3.36 1.885 5.004.104.273.034.323-.227.322ZM110.745 38.89c-1.282-3.18-2.56-6.36-3.837-9.538-.334-.816-.334-.816-1.216-.816-.334 0-.821-.022-.978.375-1.231 3.15-2.545 6.267-3.818 9.4-.135.333-.392.834-.333.979.068.178.935.112 1.062.098.305-.035.436-.095.539-.375.309-.834.667-1.668.974-2.502a.4.4 0 0 1 .447-.305c1.418.01 2.836.01 4.255 0a.397.397 0 0 1 .444.307c.239.648.501 1.29.749 1.935.369.947.369.947 1.376.945.532-.008.536-.008.336-.503Zm-3.385-3.837a136.193 136.193 0 0 0-3.309 0c-.344 0-.302-.122-.211-.359.624-1.626 1.303-3.229 1.869-4.972.415 1.27.885 2.435 1.346 3.601.178.454.345.913.529 1.363.098.249.11.38-.224.375v-.008Z"/><path fill="#2D9A44" d="M32.817 27.022c-.46.43-.923.862-1.348 1.334-.232.25-.357.182-.559-.022-1.207-1.229-2.434-2.435-3.64-3.664-.226-.232-.353-.25-.588 0-.934.96-1.89 1.901-2.836 2.849-.087.087-.177.167-.275.26-.089-.078-.167-.14-.226-.205-.358-.357-.694-.74-1.079-1.063-.322-.268-.207-.435.025-.667A358.53 358.53 0 0 0 25.34 22.8c.545-.55 1.094-1.093 1.623-1.655.19-.203.3-.18.485 0 1.79 1.803 3.587 3.599 5.39 5.388.198.203.163.315-.02.489Z"/><path fill="#076DA3" d="M20.58 41.943a475.471 475.471 0 0 0-4.838 4.857c-.167.167-.26.144-.412-.01-1.817-1.817-3.636-3.63-5.458-5.44-.083-.081-.213-.15-.066-.298.533-.535 1.06-1.078 1.593-1.615.043-.036.088-.07.136-.098.09.083.182.167.267.25 1.23 1.223 2.466 2.437 3.682 3.67.237.242.358.227.585 0 .933-.961 1.893-1.895 2.836-2.853.205-.208.334-.261.554-.013.343.39.724.747 1.1 1.106.16.15.208.255.02.444ZM74.19 28.536c-.166.429-.317.816-.473 1.201-1.261 3.09-2.52 6.182-3.777 9.278a.535.535 0 0 1-.594.389c-1.116-.015-1.117 0-1.533-1.016-1.273-3.12-2.546-6.238-3.82-9.355-.058-.143-.105-.292-.177-.488h1.35c.213 0 .26.121.319.273 1.092 2.858 2.302 5.673 3.302 8.576.055.157.067.333.257.48.442-1.35.944-2.645 1.457-3.942a415.342 415.342 0 0 0 1.954-5.012c.114-.299.25-.382.576-.39.163-.005.729.006 1.16.006ZM119.679 37.6a1.136 1.136 0 0 1-.053-.125.754.754 0 0 1 .068-.035.692.692 0 0 1 .047.117l-.062.044Z"/></g></svg>
